X:1
T:O luci amate
T:O luci amate
T:Gio.Girolamo Kapsperger
C:Gio.Girolamo Kapsperger
%%score [ 1 2 3 ] { ( 4 6 ) | 5 }
L:1/8
Q:1/4=120
M:3/2
K:F
V:1 treble nm="Soprano 1" snm="S 1"
V:2 treble nm="Soprano 2" snm="S 2"
V:3 bass nm="Bass" snm="B"
V:4 treble nm="BC" snm="BC"
V:6 treble 
V:5 bass 
V:1
 G4 c4 B4 | A8 A4 | F4 B4 A4 | G8 G4 | B4 B4 c4 | A6 G2 A4 | A8 G4 | F8 F4 :: F4 G4 A4 | B8 B4 | %10
w: O lu- ci'a-|ma- te,|e so- spi-|ra- te,|voi- mi strug-|ge- te, voi|m'an- ci-|de- te.|Qual' or in|tor- no,|
w: ||||||||Fiam- me del|co- re,|
w: ||||||||Ma'il bel se-|re- no,|
w: ||||||||Ond' io so-|ve- te,|
 d4 (c2 B2) A4 | G8 G4 | B4 c4 d4 | _e8 e4 | e4 (d2 c2) =B4 | c8 c4 | B4 B4 B4 | B6 A2 B4 | c8 B4 | %19
w: gi- ra _ t'a-|dor- no,|l'al- te- ro|sguar- do,|ond'- io _ tutt'|ar- do,|ma' voi'l mio|fo- co, pren-|de- t'a|
w: mio dol- * ce'ar-|do- re,|voi del- le|stel- le,|se- te _ piu|bel- le,||||
w: in un _ ba-|le- no,|da'i- lu- mi|spi- ra,|ful- mi- * ni|d'i- ra,||||
w: per voi _ do-|len- te,|bra- mo la|mor- te,|ahi du- * ra|sor- te,||||
 A8 A4 | B4 c4 d4 | G6 A2 B4 | B8 A4 | G8 G4 :| %24
w: gio- co,|e pur io|mo- ro, O|mio te-|so- ro.|
w: |||||
w: |||||
w: |||||
V:2
 E4 F4 G4 | F8 F4 | D4 E4 F4 | E8 E4 | G4 G4 A4 | F6 G2 F4 | F8 E4 | F8 F4 :: D4 E4 F4 | G8 G4 | %10
w: O lu- ci'a-|ma- te,|e so- spi-|ra- te,|voi mi strug-|ge- te, voi|m'an- ci-|de- te.|Qual' or in|tor- no,|
w: ||||||||Fiam- me del|co- re,|
w: ||||||||Ma'il bel se-|re- no,|
w: ||||||||Ond' io so-|ve- te,|
"^#" B4 (A2 G2) F4 | G8 G4 |"^-natural" G4 A4 B4 | c8 c4 | G4 (F2 _E2) D4 | E8 E4 | G4 G4 G4 | %17
w: gi- ra _ t'a-|dor- no,|l'al- te- ro|sguar- do,|ond' io _ tutt'|ar- do,|ma' voi'l mio|
w: mio dol- * ce'ar-|do- re,|voi del- le|stel- le,|se- te _ piu|bel- le,||
w: in un _ ba-|le- no,|da'i- lu- mi|spi- ra,|ful- mi- * ni|d'i- ra,||
w: per voi * do-|len- te,|bra- mo la|mor- te,|ahi du- * ra|sor- te,||
 G6 F2 G4 | A8 G4 | ^F8 F4 | G4 A4 B4 | B6 A2 G4 | G8 ^F4 | G8 G4 :| %24
w: fo- co, pren-|de- t'a|gio- co,|e pur io|mo- ro, O|mio te-|so- ro.|
w: |||||||
w: |||||||
w: |||||||
V:3
 C4 A,4 G,4 | D,8 D,4 | B,4 G,4 F,4 | C,8 C,4 | G,,4 G,,4 G,,4 | D,6 E,2 F,4 | B,,8 C,4 | %7
w: O lu- ci'a-|ma- te,|e so- spi-|ra- te,|voi mi strug-|ge- te, voi|m'an- ci-|
w: |||||||
w: |||||||
w: |||||||
 F,,8 F,,4 :: B,4 B,4 A,4 | G,8 G,4 | B,,4 C,4 D,4 | G,,8 G,,4 | G,4 _E,4 D,4 | C,8 C,4 | %14
w: de- te.|Qual' or in|tor- no|gi- ra t'a-|dor- no,|l'al- te- ro|sguar- do,|
w: |Fiam- me del|co- re,|mio dol- ce'ar-|do- re,|voi del- le|stel- le,|
w: |Ma'il bel se-|re- no,|in un ba-|le- no,|da'i lu- mi|spi- ra,|
w: |Ond' io so-|ve- te,|per voi do-|len- te,|bra- mo la|mor- te,|
 _E,4 F,4 G,4 | C,8 C,4 | _E,4 E,4 E,4 |"^b""^b""^b" E,6 E,2 E,4 | C,8 G,,4 | D,8 D,4 | %20
w: ond' io tutt'|ar- do,|ma voi'l mio|fo- co, pren-|de- t'a|gio- co,|
w: se- te piu|bel- le,|||||
w: ful- mi- ni|d'i- ra,|||||
w: ahi du- ra|sor- te,|||||
 G,4 F,4 B,,4 | _E,6 F,2 G,4 | C,8 D,4 | G,,8 G,,4 :| %24
w: e pur io|mo- ro, O|mio te-|so- ro.|
w: ||||
w: ||||
w: ||||
V:4
 [EGc]4 [Ec]4 [DB]4 | [FA]12 | [DFB]4 [DB]4 [Fc]4 | [EGc]12 | [DGB]12 | [FA]6 [EG]2 [Ac]4 | %6
 [Fd]8 [EG]4 | [CFA]12 :: [DFB]4 [GB]4 [Fc]4 | [DGB]12 | [FBd]4 [EG]4 [^FA]4 | [DGB]12 | %12
 [DB]4 [Gc]4 [G=B]4 | [_EGc]12 | [GB]4 [Ac]4 [D=B]4 | [EGc]12 | [GB]12 | [GB]12 | [Ac]8 [DB]4 | %19
 [^FA]12 | [DGB]4 [FA]4 [FB]4 | [GB]6 [CA]2 [DB]4 | c4 d2 _e2 d4 | [DG=B]12 :| %24
V:5
 C4 A,4 G,4 | D,12 | B,4 G,4 F,4 | C,12 | G,,12 | D,6 E,2 F,4 | B,,8 C,4 | F,,12 :: B,8 A,4 | %9
 G,12 | B,,4 C,4 D,4 | G,,12 | G,4 _E,4 D,4 | C,12 | _E,4 F,4 G,4 | C,12 | _E,12 | _E,12 | %18
 C,8 G,,4 | D,12 | G,4 F,4 B,,4 | _E,6 F,2 G,4 | C,8 [D,A,]4 | [G,,G,]12 :| %24
V:6
 x12 | x12 | x12 | x12 | x12 | x12 | x12 | x12 :: x12 | x12 | x12 | x12 | x12 | x12 | x12 | x12 | %16
 x12 | x12 | x12 | x12 | x12 | x12 | G2 A2 B2 G2 ^F4 | x12 :| %24

